X: 21753
M: 6/8
L: 1/8
K: C
EGG cGG | AGG cGG | EGG ced | cAA A2G |\
EGG cGG | AGG cGG | cde ged | cAA A2 :|
|: g |\
eaa efg | eaa ged | eaa efg | fed dcd |\
eaa egg | eaa ged | cde ged | cAA A2 :|


